packages/ffe-icons/icons/filled/md/orders.svg

<svg xmlns="http://www.w3.org/2000/svg" height="24" viewBox="0 -960 960 960" width="24"><path d="M180.001-252.309v-403.69l-62-135.153q-5.076-11.154-.615-23 4.462-11.846 15.615-16.923 11.154-5.076 23-.923 11.845 4.154 16.922 15.308l72.769 158.691h468.616l72.769-158.691q5.077-11.154 16.922-15.615 11.846-4.462 23 1.282 11.153 5.025 15.615 16.871 4.461 11.846-.615 23l-62 135.153v403.69q0 29.827-21.241 51.067-21.24 21.241-51.067 21.241H252.309q-29.827 0-51.067-21.241-21.241-21.24-21.241-51.067ZM400-450.001h160q12.75 0 21.375-8.628 8.624-8.629 8.624-21.384 0-12.756-8.624-21.371-8.625-8.615-21.375-8.615H400q-12.75 0-21.374 8.628-8.625 8.629-8.625 21.384 0 12.756 8.625 21.371 8.624 8.615 21.374 8.615Z"/></svg>

<svg xmlns="http://www.w3.org/2000/svg" height="24" viewBox="0 -960 960 960" width="24"><path d="M180-252.31V-656l-62-135.15q-5.08-11.16-.61-23Q121.85-826 133-831.07q11.15-5.08 23-.93 11.85 4.16 16.92 15.31L245.69-658h468.62l72.77-158.69q5.07-11.15 16.92-15.62 11.85-4.46 23 1.29 11.15 5.02 15.61 16.87 4.47 11.84-.61 23L780-656v403.69q0 29.83-21.24 51.07Q737.52-180 707.69-180H252.31q-29.83 0-51.07-21.24Q180-222.48 180-252.31ZM400-450h160q12.75 0 21.37-8.63 8.63-8.63 8.63-21.38 0-12.76-8.63-21.37Q572.75-510 560-510H400q-12.75 0-21.37 8.63-8.63 8.63-8.63 21.38 0 12.76 8.63 21.37Q387.25-450 400-450Z"/></svg>
